packages/components/svg/outline/info-square.svg

<svg xmlns="http://www.w3.org/2000/svg" width="24" height="24" fill="currentColor" viewBox="0 0 24 24">
<path d="M12 10C12.5523 10 13 10.4477 13 11V16C13 16.5523 12.5523 17 12 17C11.4477 17 11 16.5523 11 16V12C10.4477 12 10 11.5523 10 11C10 10.4477 10.4477 10 11 10H12Z" />
<path d="M12 7.00001C12.5523 7.00001 13 7.44774 13 8.00001C13 8.5523 12.5523 9.00001 12 9.00001C11.4478 9.00001 11 8.55229 11 8.00001C11 7.44774 11.4478 7.00002 12 7.00001Z" />
<path fill-rule="evenodd" clip-rule="evenodd" d="M18.4004 3.00001C18.6638 3.00001 18.9219 2.99889 19.1387 3.01662C19.3672 3.03531 19.637 3.07957 19.9082 3.21779C20.2374 3.38555 20.513 3.64086 20.7051 3.95412L20.7822 4.09181L20.8692 4.29494C20.9407 4.49577 20.9694 4.69007 20.9834 4.86134C21.0011 5.07815 21 5.33624 21 5.59962V18.4004C21 18.6638 21.0011 18.9219 20.9834 19.1387C20.9647 19.3672 20.9205 19.637 20.7822 19.9082C20.5905 20.2845 20.2845 20.5905 19.9082 20.7822C19.637 20.9205 19.3672 20.9647 19.1387 20.9834C18.9219 21.0011 18.6638 21 18.4004 21H5.59962C5.33624 21 5.07815 21.0011 4.86134 20.9834C4.63285 20.9647 4.36306 20.9205 4.09181 20.7822C3.71555 20.5905 3.40951 20.2845 3.21779 19.9082C3.07957 19.637 3.03531 19.3672 3.01662 19.1387C2.99889 18.9219 3.00001 18.6638 3.00001 18.4004V5.59962C3.00001 5.33624 2.9989 5.07815 3.01662 4.86134C3.03531 4.63284 3.07957 4.36306 3.21779 4.09181C3.40951 3.71556 3.71556 3.40951 4.09181 3.21779C4.36306 3.07957 4.63284 3.03531 4.86134 3.01662C5.07815 2.9989 5.33624 3.00001 5.59962 3.00001H18.4004ZM5.59962 5.00001C5.30335 5.00002 5.14096 5.00124 5.02443 5.01076C5.01997 5.01112 5.01574 5.01136 5.01173 5.01173C5.01136 5.01574 5.01112 5.01997 5.01076 5.02443C5.00124 5.14096 5.00002 5.30335 5.00001 5.59962V18.4004C5.00001 18.6967 5.00124 18.859 5.01076 18.9756C5.01109 18.9797 5.01139 18.9836 5.01173 18.9873C5.01576 18.9877 5.01994 18.9889 5.02443 18.9893C5.14096 18.9988 5.30335 19 5.59962 19H18.4004C18.6967 19 18.859 18.9988 18.9756 18.9893C18.9797 18.9889 18.9836 18.9877 18.9873 18.9873C18.9877 18.9836 18.9889 18.9797 18.9893 18.9756C18.9988 18.859 19 18.6967 19 18.4004V5.59962C19 5.30335 18.9988 5.14096 18.9893 5.02443C18.9889 5.01994 18.9877 5.01576 18.9873 5.01173C18.9836 5.01139 18.9797 5.01109 18.9756 5.01076C18.859 5.00124 18.6967 5.00001 18.4004 5.00001H5.59962Z" />
</svg>

<svg xmlns="http://www.w3.org/2000/svg" width="24" height="24" fill="currentColor" viewBox="0 0 24 24">
  <path  d="M19 5.6c0-.297-.001-.459-.01-.576l-.003-.012-.011-.001A8.1 8.1 0 0 0 18.4 5H5.6a8.1 8.1 0 0 0-.576.01l-.012.002-.001.012A8.1 8.1 0 0 0 5 5.6v12.8c0 .297.001.46.01.576l.002.011.012.002c.117.01.28.011.576.011h12.8c.297 0 .46-.001.576-.01l.011-.003.002-.011c.01-.117.011-.28.011-.576V5.6ZM11 16v-4a1 1 0 1 1 0-2h1a1 1 0 0 1 1 1v5a1 1 0 1 1-2 0Zm10 2.4c0 .264.001.522-.017.739a2.02 2.02 0 0 1-.2.77 2 2 0 0 1-.875.873 2.02 2.02 0 0 1-.77.201c-.216.018-.474.017-.738.017H5.6c-.264 0-.522.001-.739-.017a2.021 2.021 0 0 1-.77-.2 2 2 0 0 1-.873-.875 2.022 2.022 0 0 1-.201-.77C2.999 18.923 3 18.665 3 18.4V5.6c0-.264-.001-.522.017-.739.018-.228.063-.498.2-.77a2 2 0 0 1 .875-.873c.271-.138.54-.183.77-.201C5.077 2.999 5.335 3 5.6 3h12.8c.264 0 .522-.001.739.017.228.018.498.063.77.2a2 2 0 0 1 .796.737l.077.138.087.203c.072.2.1.395.114.566.018.217.017.475.017.739v12.8Z"/>
  <path  d="M12.5 8a.5.5 0 1 0-1 0 .5.5 0 0 0 1 0Zm.5 0a1 1 0 1 1-2 0 1 1 0 0 1 2 0Z"/>
</svg>
